packages/ffe-icons/icons/filled/md/roller_skating.svg

<svg xmlns="http://www.w3.org/2000/svg" height="24" viewBox="0 -960 960 960" width="24"><path d="M242.308-330.001q-29.827 0-51.067-21.24t-21.24-51.067v-435.384q0-29.827 21.24-51.067t51.067-21.24h161.538q29.827 0 51.067 21.24 21.241 21.24 21.241 51.067v40H380q-7.077 0-12.384 5.307-5.308 5.308-5.308 12.385t5.308 12.385q5.307 5.307 12.384 5.307h96.192v22.418q0 5.604.481 11.209.481 5.604 1.865 10.989H380q-7.077 0-12.384 5.307-5.308 5.308-5.308 12.385t5.308 12.385q5.307 5.307 12.384 5.307h110.852q13.378 23 34.494 39 21.115 16 47.115 24l105 29q48.923 12.846 78.807 52.759 29.885 39.912 29.885 90.625v44.616q0 29.827-21.24 51.067-21.241 21.24-51.067 21.24H242.308Zm-42.263 280q-45.814 0-77.929-32.07t-32.115-77.884q0-45.814 32.07-77.929t77.884-32.115q45.814 0 77.929 32.07t32.115 77.884q0 45.814-32.07 77.93-32.07 32.114-77.884 32.114Zm560 0q-45.814 0-77.929-32.07t-32.115-77.884q0-45.814 32.07-77.929t77.884-32.115q45.814 0 77.929 32.07t32.115 77.884q0 45.814-32.07 77.93-32.07 32.114-77.884 32.114Zm-280 0q-45.814 0-77.929-32.07t-32.115-77.884q0-45.814 32.07-77.929t77.884-32.115q45.814 0 77.929 32.07t32.115 77.884q0 45.814-32.07 77.93-32.07 32.114-77.884 32.114Z"/></svg>

<svg xmlns="http://www.w3.org/2000/svg" height="24" viewBox="0 -960 960 960" width="24"><path d="M242.31-330q-29.83 0-51.07-21.24Q170-372.48 170-402.31v-435.38q0-29.83 21.24-51.07Q212.48-910 242.31-910h161.54q29.82 0 51.06 21.24 21.24 21.24 21.24 51.07v40H380q-7.08 0-12.38 5.31-5.31 5.3-5.31 12.38 0 7.08 5.31 12.38 5.3 5.31 12.38 5.31h96.19v22.42q0 5.6.48 11.21.48 5.6 1.87 10.99H380q-7.08 0-12.38 5.31-5.31 5.3-5.31 12.38 0 7.08 5.31 12.38 5.3 5.31 12.38 5.31h110.85q13.38 23 34.5 39 21.11 16 47.11 24l105 29q48.92 12.85 78.81 52.76 29.88 39.91 29.88 90.63v44.61q0 29.83-21.24 51.07Q743.67-330 713.85-330H242.31ZM200.05-50q-45.82 0-77.93-32.07Q90-114.14 90-159.95q0-45.82 32.07-77.93Q154.14-270 199.95-270q45.82 0 77.93 32.07Q310-205.86 310-160.05q0 45.82-32.07 77.93Q245.86-50 200.05-50Zm560 0q-45.82 0-77.93-32.07Q650-114.14 650-159.95q0-45.82 32.07-77.93Q714.14-270 759.95-270q45.82 0 77.93 32.07Q870-205.86 870-160.05q0 45.82-32.07 77.93Q805.86-50 760.05-50Zm-280 0q-45.82 0-77.93-32.07Q370-114.14 370-159.95q0-45.82 32.07-77.93Q434.14-270 479.95-270q45.82 0 77.93 32.07Q590-205.86 590-160.05q0 45.82-32.07 77.93Q525.86-50 480.05-50Z"/></svg>
